X: 1736
T: BALFE'S HORNPIPE
M:C|
L:1/8
B:O'NEILL'S 1736
N:"collected by Early"
Z:Transcribed by A.LEE WORMAN
Z:Corrected by John Chambers
K:D
(3A-B-c |\
d>ec>d (3BAG (3AGF | G2 (f<b) (f<b)a>g |\
(3fag (3fed (3egf (3edc | (3dfa (3d'c'b (3aba (3gfe |
d>ec>d (3BAG (3AGF | G2 (f<b) (f<b)a>g |\
(3fag (3gfe (3egf (3edc | d2 f2 d2 :|
|: (3A-B-c |\
d>f (3abc' d'>c'd'>c' | b>ab>c' b>ge>d |\
c>de>f g>fg>b | a>^ga>b a2 (3A-B-c |
d>f (3abc' d'>c'd'>c' | b>ab>c' b2 a>g |\
(3fag (3fed (3egf (3edc | d2 f2 d2 :|
%  ABC2Win Version 2.1 2/8/98


